Surfn-Breeze-Dark/16x16/mimetypes/application-x-php.svg

<?xml version="1.0" encoding="UTF-8" standalone="no"?>
<svg xmlns="http://www.w3.org/2000/svg" width="16" height="16" version="1.1" viewBox="0 0 16 16">
 <g transform="translate(0,-1036.3622)">
  <path style="fill:#4f5b93;fill-opacity:1" d="M 9.0898438 2 L 5.9433594 13.740234 L 6.9101562 14 L 10.056641 2.2597656 L 9.0898438 2 z M 5.2851562 4 L 2.3242188 7.1445312 L 2 7.4921875 L 2.3242188 7.8378906 L 5.2675781 11 L 5.9824219 10.304688 L 3.3613281 7.4921875 L 6 4.6953125 L 5.2851562 4 z M 12 4 C 10.892 4 10 4.892 10 6 L 10 7 L 11 7 L 11 6 C 11 5.446 11.446 5 12 5 C 12.554 5 13 5.446 13 6 L 13 7 C 11.892 7 11 7.892 11 9 L 12 9 C 12 8.446 12.446 8 13 8 L 14 8 L 14 7.2773438 L 14 6 C 14 4.892 13.108 4 12 4 z M 11.5 10 A 0.5 0.5 0 0 0 11 10.5 A 0.5 0.5 0 0 0 11.5 11 A 0.5 0.5 0 0 0 12 10.5 A 0.5 0.5 0 0 0 11.5 10 z" transform="translate(0,1036.3622)"/>
 </g>
</svg>

<svg width="16" xmlns="http://www.w3.org/2000/svg" height="16" viewBox="0 0 16 16">
 <path fill="#8373d7" color="#000000" stroke-width=".1" d="m9.09 2l-3.146 11.74.967.26 3.146-11.74zm-3.805 2l-2.961 3.145-.324.348.324.346 2.943 3.162.715-.695-2.621-2.813 2.639-2.797zm6.715 0c-1.108 0-2 .892-2 2v1h1v-1c0-.554.446-1 1-1 .554 0 1 .446 1 1v1c-1.108 0-2 .892-2 2h1c0-.554.446-1 1-1h1v-2c0-1.108-.892-2-2-2m-.5 6a.5 .5 0 0 0 -.5 .5 .5 .5 0 0 0 .5 .5 .5 .5 0 0 0 .5 -.5 .5 .5 0 0 0 -.5 -.5"/>
</svg>
